icon-themes/sifr_svg/cmd/lc_flowchartshapes.flowchart-document.svg

<svg viewBox="0 0 24 24" xmlns="http://www.w3.org/2000/svg"><g fill="#555753"><path d="m2 3h20v12.361779c-1.128054-.968138-2.65104-1.361779-4.5-1.361779-2.605829.0018-4.5 1.806121-5.5 3s-3.3824485 3-5.5 3-4.5-.916048-4.5-2.615385z" opacity=".35"/><path d="m1 2v15.384766c0 1.316997.9496398 2.295037 2 2.833984s2.297025.78125 3.5.78125c2.6861708 0 5.084328-1.944765 6.267578-3.357422.919323-1.09756 2.587869-2.641097 4.732422-2.642578 1.707028 0 3.083293.485999 3.831632 1l1.668368 1v-15zm2 2h18v9.728516c-1.061203-.445283-2.211275-.728516-3.5-.728516-3.067105.0021-5.186901 2.067224-6.267578 3.357422-.81675.975101-3.1834898 2.642578-4.732422 2.642578-.9145765 0-1.9176387-.216636-2.5878906-.560547s-.9121094-.672348-.9121094-1.054687z"/></g></svg>

<svg xmlns="http://www.w3.org/2000/svg" viewBox="0 0 24 24">
  <path
     style="opacity:0.35;fill:#555753"
     d="M 2,3 H 22 V 15.361779 C 20.871946,14.393641 19.34896,14 17.5,14 14.894171,14.0018 13,15.806121 12,17 11,18.193879 8.6175515,20 6.5,20 4.3824485,20 2,19.083952 2,17.384615 Z"
     />
  <path
     style="fill:#555753"
     d="M 1,2 V 17.384766 C 1,18.701763 1.9496398,19.679803 3,20.21875 4.0503602,20.757697 5.297025,21 6.5,21 9.1861708,21 11.584328,19.055235 12.767578,17.642578 13.686901,16.545018 15.355447,15.001481 17.5,15 c 1.707028,0 3.083293,0.485999 3.831632,1 L 23,17 V 2 Z m 2,2 h 18 v 9.728516 C 19.938797,13.283233 18.788725,13 17.5,13 14.432895,13.0021 12.313099,15.067224 11.232422,16.357422 10.415672,17.332523 8.0489322,19 6.5,19 5.5854235,19 4.5823613,18.783364 3.9121094,18.439453 3.2418575,18.095542 3,17.767105 3,17.384766 Z"
     />
</svg>
